X:240
T: Jackson's Punch Bowl
N: O'Farrell's Pocket Companion v.3 (Sky ed. p.115)
N: "Irish"
M: 6/8
L: 1/8
R: jig
Q: 320
K: G
z| G2A BcB| BAG c2A| G2E EGE| BGE E2F|
G2A BcB| BAG c2A| GED DED| E2D D2 :|
P:2
e| dBG GAG| GBd c2A| G2E EGE| BGE E2B|
dBG GAG| GBd c2A| GED DED| E2D D2 :|
P:3
d| gfg ege| dBG B2d| G2E EGE| BGE E2B|
gfg ege| dBG B2d| GED DED| E2D D2 :|
P:4
E/G/| A3 AGE| AGE c3| G2E EGE | G2E EFG|
A3 AGE| AGE c3| GED DED| E2D D2 :|
